!!!OTL: Die verwundete Dame Es wollt' ein Mueller frueh aufstehn,
!!!ARE: Europa, Mitteleuropa, Deutschland, Wolga - Kolonie
!!!SCT: D0147
!!!YEM: Copyright 1995, estate of Helmut Schaffrath.
**kern
*ICvox
*Ivox
!! Mixed meters:  3/4; 2/4
*M3/4
*k[f#]
*G:
=1
{8g
8b
8cc
=2
4dd
4dd
8cc
8dd
=3
4a
8r}
{8g
8f#
8g
=4
8a
8b
8cc
8a
8g
8a
=5
*M2/4
8b
8cc
8dd
8cc
=6
4b
8a
8b
=7
4g
8r}
==
!!!AGN: Ballade
!!!ONB: ESAC (Essen Associative Code) Database: DVA
!!!AMT: irregular
!!!AIN: vox
!!!EED: Helmut Schaffrath
!!!EEV: 1.0
*-
